X:7
T:Polka FBb 5+ 
M:2/4
L:1/16
K:Fmaj
"F"a2g2 fed2 | c2f2 a4 | "C7"c'2g2 g^fg2 | "F"a2f2 fef2 | a2g2 fed2 | c2f2 a4 | "C7"c'2g2 gfeg | "F"f2f2 f2 z2 :| 
|: "C7"cegc' bage | "F"f2fd' c'4 | "C7"g2gc' b4 | "F"f2fb a4 | "C7"cegc' bage | "F"f2fd' c'4 | "C7"g2gc' bage | "F"f2f2 f2 z2 :|
K:Bbmaj
L:1/8
|: "Bb"d2 f>b | "F7"aa e'2 | gg ag/2a/2 | "Bb"bb d'2 | d2 f>b | "F7"aa e'2 | gg ag/2a/2 | "Bb"bb b z :: [L:1/16]
"F7"FAcf a2a2 | "Bb"b2d'2 c'bag | "F7"f2e'2 g2a2 | "Bb"bd'ac' bagf | "F7"FAcf a2a2 | "Bb"b2d'2 c'bag | "F7"f2e'2 g3a | "Bb"b2b2 b2 z2 :| 

